X: 38817
T: Sullivan John
R: reel
M: 4/4
K: Cmajor
c3G AcGc|AcGc deed|c3G AcGc|egdc BGAB|
c3G AcGc|AcGc deed|cega g3a|egdc BGAB|
c3g ecgc|ecgc BGBd|c3g ecgc|BG(3GGG BcdB|
c3g ecgc|ecgc BGBd|cega g3a|ecgc BGBd|
cA(3AAA cded|c2ec BGGd|cA(3AAA cded|egdc BGBd|
cA(3AAA cded|c2ec BGGd|cega g3a|egdc BGBd|

